X: 665
T: Ve David
O: I Samuel 18:7
Z: 1997 by John Chambers <jc:trillian.mit.edu>
M: 4/4
L: 1/8
K: Ddor
"^Intro"\
|: "Dm"D2 D2 "C"C2 (DE) | "Dm"F2 G2 (FG) (FE) | D2 D2 "C"CC B,C | "Dm"D8 :|
w: Ve Da-vid ye-*fe ey-na-*yim,* hu' ro-'e ba-sho-sha-nim.
%%sep 5 5 200
K: Gm
|: "D"DA AB AB AG |[1 "Cm"^FG FE DC "D"D2 :|[2 "Cm"^FG FE DC "D"D D 
w: Ve Da-vid ye-fe ey-na-yim, hu' ro-'e ba-sho-sha-nim.
| "Gm"DG GG AG "D"A2 | DA Ac "Gm"B/A/G "D"A2 
w: Hi-ka Sha-ul be-a-la-fav, ve Da-vid be-ri-ve-vo-tav.
| "Cm"^FF F2 G2 FE | "D"D8 | "D"[^FA][FA] [F2A2] "Cm"[G2B2] [FA][EG] | "D"[A8^F8D8] |
w: Ben yi-shai chai ve-kay-yam.  Ben yi-shai chai ve-kay-yam.
W: And David was pleasing to the eyes, a shepherd among the flowers.
W: Saul killed thousands, and David tens of thousands.
W: His sons will live and prosper.



